!!!COM: Music21
!!!OTL: Foliada de San Benito de Lérez
!!!OMV: pezas_foliadas_foliada-de-san-benito-de-lerez_foliada-de-san-benito-de-lerez-partitura.musicxml
**kern
*I"Bagpipes
*I'Bag
*clefG^2
*k[b-e-a-]
*E-:
*M3/8
=1
!LO:TX:a:t=Allegretto
*MM120
!LO:TX:a:t=[quarter]=120
8ggL
8gg
8ggJ
=
8ggL
8aa-
8ggJ
=
8ffL
16ee-L
16ddJ
[8ccJ
=
4.cc]
=
8aa-L
8aa-
8aa-J
=
8aa-L
8gg
8ffJ
=
8bb-L
16aa-L
16bb-J
[8ggJ
=
4.gg]
=
8ggL
8gg
8ggJ
=
8ggL
8aa-
8ggJ
=
8ffL
16ee-L
16ddJ
8ccJ
=
8aa-
4ff
!!linebreak:original
=
8gg
4ee-
=
8ff
4dd
=
8ee-
24ddLL
24ee-
24ddJ
[8ccJ
=
8ccL]
16ggL
16gg
16gg
16ggJJ
=||
8aa-L
8gg
8ffJ
=
8ee-L
8dd
8ccJ
=
8dd
24ccLL
24dd
24ccJ
[8bnJ
=
8bL]
16ffL
16ff
16ff
16ffJJ
=
8ggL
8ff
8ee-J
!!linebreak:original
=
8ddL
8cc
8bnJ
=
8dd
24ddLL
24ee-
24ddJ
[8ccJ
=
8ccL]
16ggL
16gg
16gg
16ggJJ
=
8aa-L
8gg
8ffJ
=
8ee-L
8dd
8ccJ
=
8dd
24ccLL
24dd
24ccJ
[8bnJ
=
8bL]
16ffL
16ff
16ff
16ffJJ
=
8ggL
8ff
8ee-J
=
8ddL
8cc
8bnJ
!!linebreak:original
=
8dd
24ddLL
24ee-
24ddJ
[8ccJ
=
4.cc]
=
*-
